Papirus/32x32/apps/distributor-logo-openmandriva.svg

<svg width="32" height="32" version="1.1" xmlns="http://www.w3.org/2000/svg">
 <circle cx="16" cy="17" r="14" style="opacity:.2"/>
 <circle cx="16" cy="16" r="14" style="fill:#248afd"/>
 <path d="M 16,2 A 14,14 0 0 0 2,16 14,14 0 0 0 2.0215,16.586 14,14 0 0 1 16,3 14,14 0 0 1 29.979,16.414 14,14 0 0 0 30,16 14,14 0 0 0 16,2 Z" style="fill:#ffffff;opacity:.2"/>
 <path d="m16 5a12 12 0 0 0-12 12 12 12 0 0 0 12 12 12 12 0 0 0 11.695312-9.353516 9 9 0 0 1-7.695312 4.353516 9 9 0 0 1-9-9 9 9 0 0 1 9-9 9 9 0 0 1 0.873047 0.042969 12 12 0 0 0-4.873047-1.042969zm4 2a8 8 0 0 0-8 8 8 8 0 0 0 8 8 8 8 0 0 0 8-8 8 8 0 0 0-8-8zm0 2a6 6 0 0 1 6 6 6 6 0 0 1-6 6 6 6 0 0 1-6-6 6 6 0 0 1 6-6z" style="opacity:.2"/>
 <path d="m16 4a12 12 0 0 0-12 12 12 12 0 0 0 12 12 12 12 0 0 0 11.695312-9.353516 9 9 0 0 1-7.695312 4.353516 9 9 0 0 1-9-9 9 9 0 0 1 9-9 9 9 0 0 1 0.873047 0.0429688 12 12 0 0 0-4.873047-1.0429688zm4 2a8 8 0 0 0-8 8 8 8 0 0 0 8 8 8 8 0 0 0 8-8 8 8 0 0 0-8-8zm0 2a6 6 0 0 1 6 6 6 6 0 0 1-6 6 6 6 0 0 1-6-6 6 6 0 0 1 6-6z" style="fill:#ffffff"/>
</svg>

<svg xmlns="http://www.w3.org/2000/svg" width="32" height="32" version="1.1">
 <circle style="opacity:0.2" cx="16" cy="17" r="14"/>
 <circle style="fill:#248afd" cx="16" cy="16" r="14"/>
 <path style="opacity:0.2;fill:#ffffff" d="M 16,2 A 14,14 0 0 0 2,16 14,14 0 0 0 2.0215,16.586 14,14 0 0 1 16,3 14,14 0 0 1 29.979,16.414 14,14 0 0 0 30,16 14,14 0 0 0 16,2 Z"/>
 <path style="opacity:0.2" d="M 16,5 A 12,12 0 0 0 4,17 12,12 0 0 0 16,29 12,12 0 0 0 27.695,19.646 9,9 0 0 1 20,24 9,9 0 0 1 11,15 9,9 0 0 1 20,6 9,9 0 0 1 20.873,6.043 12,12 0 0 0 16,5 Z M 20,7 A 8,8 0 0 0 12,15 8,8 0 0 0 20,23 8,8 0 0 0 28,15 8,8 0 0 0 20,7 Z M 20,9 A 6,6 0 0 1 26,15 6,6 0 0 1 20,21 6,6 0 0 1 14,15 6,6 0 0 1 20,9 Z"/>
 <path style="fill:#ffffff" d="M 16,4 A 12,12 0 0 0 4,16 12,12 0 0 0 16,28 12,12 0 0 0 27.695,18.646 9,9 0 0 1 20,23 9,9 0 0 1 11,14 9,9 0 0 1 20,5 9,9 0 0 1 20.873,5.043 12,12 0 0 0 16,4 Z M 20,6 A 8,8 0 0 0 12,14 8,8 0 0 0 20,22 8,8 0 0 0 28,14 8,8 0 0 0 20,6 Z M 20,8 A 6,6 0 0 1 26,14 6,6 0 0 1 20,20 6,6 0 0 1 14,14 6,6 0 0 1 20,8 Z"/>
</svg>
